usr/share/icons/biglinux-icons-material/16/actions/path-mode-bspline.svg

<svg width="16" height="16" version="1.1" xmlns="http://www.w3.org/2000/svg">
 <path class="ColorScheme-Text" d="m2 2v3h1v6h-1v3h3v-3h-1v-6h1v-1h6v1h3v-3h-3v1h-6v-1h-3zm1 1h1v1h-1v-1zm9 0h1v1h-1v-1zm-9 9h1v1h-1v-1z" color="#dedede" fill="currentColor"/>
 <path d="m13 6a7 7 0 0 0-7 7 7 7 0 0 0 0.070312 1h1.0176a6 6 0 0 1-0.087891-1 6 6 0 0 1 6-6 6 6 0 0 1 1 0.083984v-1.0117a7 7 0 0 0-1-0.072266z" fill="#3daee9" stroke-linecap="round" stroke-linejoin="round" stroke-width="2.8"/>
</svg>

<svg xmlns="http://www.w3.org/2000/svg" width="16" height="16"><path fill="currentColor" d="M2 2v3h1v6H2v3h3v-3H4V5h1V4h6v1h3V2h-3v1H5V2H2zm1 1h1v1H3V3zm9 0h1v1h-1V3zm-9 9h1v1H3v-1z" class="ColorScheme-Text" color="#dedede"/><path fill="#3daee9" d="M13 6a7 7 0 0 0-7 7 7 7 0 0 0 .07 1h1.018A6 6 0 0 1 7 13a6 6 0 0 1 6-6 6 6 0 0 1 1 .084V6.072A7 7 0 0 0 13 6z"/></svg>
